src/assets/icons/logo.svg

<svg width="180" height="80" viewBox="0 0 180 80" fill="none" xmlns="http://www.w3.org/2000/svg">
<path d="M15.0205 71.344C16.5138 71.6 18.0072 72.1333 19.5005 72.944V74.8H9.4525L8.8765 74.224L11.6285 61.488L17.5805 33.712L13.6765 33.136V31.536C15.0845 30.9387 16.5565 30.4053 18.0925 29.936C19.6712 29.4667 21.1432 29.232 22.5085 29.232L23.7885 30L21.1645 41.264H21.4205C22.1885 39.5573 23.0205 37.9787 23.9165 36.528C24.8552 35.0773 25.8578 33.8187 26.9245 32.752C27.9912 31.6427 29.1432 30.7893 30.3805 30.192C31.6178 29.552 32.9405 29.232 34.3485 29.232C35.2872 29.232 36.1832 29.424 37.0365 29.808C37.8898 30.1493 38.6365 30.704 39.2765 31.472C39.9165 32.1973 40.4072 33.1147 40.7485 34.224C41.1325 35.3333 41.3245 36.6133 41.3245 38.064C41.3245 41.3493 40.8338 44.4853 39.8525 47.472C38.8712 50.4587 37.5272 53.0827 35.8205 55.344C34.1565 57.6053 32.1938 59.4187 29.9325 60.784C27.6712 62.1067 25.2392 62.768 22.6365 62.768C21.9112 62.768 21.2925 62.7467 20.7805 62.704C20.2685 62.6613 19.8205 62.576 19.4365 62.448C19.0525 62.3627 18.6685 62.2347 18.2845 62.064C17.9432 61.8933 17.5592 61.7013 17.1325 61.488L15.0205 71.344ZM31.3405 33.2C30.1032 33.2 28.9298 33.6907 27.8205 34.672C26.7112 35.6107 25.6658 36.7627 24.6845 38.128C23.7458 39.4933 22.8925 40.944 22.1245 42.48C21.3565 43.9733 20.7378 45.296 20.2685 46.448L17.7725 58.544C18.3698 59.056 18.9885 59.44 19.6285 59.696C20.3112 59.9093 21.3778 60.016 22.8285 60.016C24.5352 60.016 26.1352 59.3973 27.6285 58.16C29.1645 56.88 30.4872 55.2587 31.5965 53.296C32.7485 51.3333 33.6445 49.1573 34.2845 46.768C34.9672 44.336 35.3085 41.9467 35.3085 39.6C35.3085 37.552 34.9458 35.9733 34.2205 34.864C33.5378 33.7547 32.5778 33.2 31.3405 33.2ZM46.124 50.096C46.124 47.8347 46.4653 45.488 47.148 43.056C47.8733 40.5813 48.9613 38.32 50.412 36.272C51.8627 34.224 53.676 32.5387 55.852 31.216C58.028 29.8933 60.5667 29.232 63.468 29.232C66.796 29.232 69.292 30.256 70.956 32.304C72.6627 34.352 73.516 37.3813 73.516 41.392C73.516 44.208 73.1107 46.9173 72.3 49.52C71.4893 52.08 70.3587 54.3413 68.908 56.304C67.4573 58.2667 65.708 59.8453 63.66 61.04C61.612 62.192 59.3507 62.768 56.876 62.768C53.5907 62.768 50.9667 61.7227 49.004 59.632C47.084 57.4987 46.124 54.32 46.124 50.096ZM62.188 31.984C60.0973 32.0267 58.3907 32.7093 57.068 34.032C55.7453 35.3547 54.7 36.9973 53.932 38.96C53.164 40.9227 52.6307 43.0347 52.332 45.296C52.0333 47.5573 51.884 49.6267 51.884 51.504C51.884 54.0213 52.4387 56.0693 53.548 57.648C54.6573 59.2267 56.1507 60.016 58.028 60.016C59.5213 60.016 60.844 59.4613 61.996 58.352C63.1907 57.2 64.1933 55.7067 65.004 53.872C65.8573 51.9947 66.4973 49.8827 66.924 47.536C67.3933 45.1893 67.628 42.8213 67.628 40.432C67.628 37.9147 67.18 35.888 66.284 34.352C65.4307 32.816 64.0653 32.0267 62.188 31.984ZM92.3825 54.448C92.3398 53.424 92.0412 52.5493 91.4865 51.824C90.9745 51.056 90.2918 50.3307 89.4385 49.648C88.6278 48.9653 87.7532 48.2827 86.8145 47.6C85.8758 46.9173 84.9798 46.1707 84.1265 45.36C83.3158 44.5067 82.6332 43.5467 82.0785 42.48C81.5665 41.3707 81.3105 40.048 81.3105 38.512C81.3105 36.976 81.6092 35.632 82.2065 34.48C82.8038 33.328 83.6145 32.368 84.6385 31.6C85.7052 30.832 86.9638 30.256 88.4145 29.872C89.9078 29.4453 91.5292 29.232 93.2785 29.232C94.3878 29.232 95.6252 29.3387 96.9905 29.552C98.3985 29.7227 99.7212 30.1707 100.959 30.896C100.959 31.3653 100.873 31.92 100.703 32.56C100.532 33.1573 100.297 33.7547 99.9985 34.352C99.7425 34.9067 99.4438 35.44 99.1025 35.952C98.7612 36.4213 98.3985 36.7413 98.0145 36.912L93.2785 31.984C92.3825 32.0267 91.5505 32.1333 90.7825 32.304C90.0145 32.4747 89.3318 32.752 88.7345 33.136C88.1798 33.52 87.7318 34.032 87.3905 34.672C87.0918 35.2693 86.9425 36.0373 86.9425 36.976C86.9425 38.0853 87.2198 39.0453 87.7745 39.856C88.3292 40.624 89.0118 41.3707 89.8225 42.096C90.6758 42.7787 91.5718 43.4613 92.5105 44.144C93.4918 44.784 94.3878 45.5307 95.1985 46.384C96.0518 47.1947 96.7558 48.1547 97.3105 49.264C97.8652 50.3307 98.1425 51.6107 98.1425 53.104C98.1425 54.64 97.7798 56.0053 97.0545 57.2C96.3718 58.3947 95.4118 59.4187 94.1745 60.272C92.9798 61.0827 91.5718 61.7013 89.9505 62.128C88.3718 62.5547 86.6865 62.768 84.8945 62.768C83.1025 62.768 81.4598 62.576 79.9665 62.192C78.5158 61.8507 77.3638 61.4027 76.5105 60.848C76.7238 59.7387 76.9798 58.672 77.2785 57.648C77.5772 56.5813 78.1958 55.6 79.1345 54.704L84.8945 60.016C85.7905 60.016 86.6652 59.9093 87.5185 59.696C88.4145 59.4827 89.2038 59.1413 89.8865 58.672C90.6118 58.2027 91.1878 57.6267 91.6145 56.944C92.0838 56.2613 92.3398 55.4293 92.3825 54.448ZM106.269 31.536C107.122 31.0667 108.018 30.64 108.957 30.256C109.938 29.872 110.898 29.5733 111.837 29.36L112.861 24.496C113.458 24.0267 114.141 23.6213 114.909 23.28C115.719 22.896 116.551 22.5333 117.405 22.192L118.749 22.96L117.213 30H125.149C125.234 30.512 125.234 31.0453 125.149 31.6C125.063 32.1547 124.85 32.688 124.509 33.2H116.573L112.541 51.76C112.37 52.5707 112.242 53.296 112.157 53.936C112.071 54.5333 112.029 55.088 112.029 55.6C112.029 56.7093 112.349 57.52 112.989 58.032C113.629 58.544 114.333 58.8 115.101 58.8C116.167 58.8 117.298 58.608 118.493 58.224C119.73 57.7973 120.861 57.328 121.885 56.816L122.589 57.968C122.205 58.5227 121.629 59.0773 120.861 59.632C120.093 60.1867 119.218 60.6987 118.237 61.168C117.298 61.6373 116.295 62.0213 115.229 62.32C114.205 62.6187 113.223 62.768 112.285 62.768C110.407 62.768 108.935 62.3413 107.869 61.488C106.802 60.6347 106.269 59.312 106.269 57.52C106.269 56.9227 106.311 56.2613 106.397 55.536C106.525 54.8107 106.674 54.064 106.845 53.296L111.069 33.2H106.205L106.269 31.536ZM128.855 33.136V31.536C129.495 31.28 130.22 31.024 131.031 30.768C131.842 30.4693 132.674 30.2133 133.527 30C134.38 29.7867 135.191 29.616 135.959 29.488C136.727 29.3173 137.41 29.232 138.007 29.232L139.159 30L133.143 58.416H137.879V60.08C136.983 60.7627 135.938 61.3173 134.743 61.744C133.548 62.1707 132.375 62.384 131.223 62.384C129.986 62.384 129.09 62.1067 128.535 61.552C128.023 60.9973 127.767 60.3573 127.767 59.632C127.767 58.7787 127.831 57.9467 127.959 57.136C128.087 56.3253 128.258 55.4293 128.471 54.448L132.951 33.776L128.855 33.136ZM134.039 18.928C134.039 17.8187 134.38 16.944 135.063 16.304C135.746 15.664 136.642 15.344 137.751 15.344C138.946 15.344 139.884 15.664 140.567 16.304C141.25 16.944 141.591 17.8187 141.591 18.928C141.591 19.9947 141.25 20.8267 140.567 21.424C139.884 22.0213 138.946 22.32 137.751 22.32C136.642 22.32 135.746 22.0213 135.063 21.424C134.38 20.8267 134.039 19.9947 134.039 18.928ZM167.213 56.304C166.829 57.1147 166.274 57.904 165.549 58.672C164.824 59.44 163.97 60.144 162.989 60.784C162.008 61.3813 160.898 61.8507 159.661 62.192C158.424 62.576 157.101 62.768 155.693 62.768C152.152 62.768 149.421 61.7653 147.501 59.76C145.624 57.712 144.685 54.896 144.685 51.312C144.685 48.2827 145.112 45.424 145.965 42.736C146.818 40.048 148.013 37.7013 149.549 35.696C151.085 33.6907 152.941 32.112 155.117 30.96C157.336 29.808 159.789 29.232 162.477 29.232C164.525 29.232 166.274 29.7653 167.725 30.832C169.218 31.856 169.965 33.392 169.965 35.44C169.965 38.4693 168.45 40.8587 165.421 42.608C162.434 44.3573 157.592 45.488 150.893 46C150.722 46.7253 150.594 47.4293 150.509 48.112C150.466 48.7947 150.445 49.456 150.445 50.096C150.445 52.656 151.085 54.7467 152.365 56.368C153.688 57.9893 155.608 58.8 158.125 58.8C158.936 58.8 159.725 58.672 160.493 58.416C161.304 58.16 162.05 57.84 162.733 57.456C163.458 57.072 164.098 56.6667 164.653 56.24C165.25 55.8133 165.762 55.4293 166.189 55.088L167.213 56.304ZM160.493 31.984C158.658 32.0267 156.952 32.9013 155.373 34.608C153.794 36.272 152.45 39.152 151.341 43.248C155.48 43.12 158.701 42.416 161.005 41.136C163.309 39.8133 164.461 38 164.461 35.696C164.461 34.8 164.184 33.968 163.629 33.2C163.117 32.432 162.072 32.0267 160.493 31.984ZM166.573 12.912C166.914 12.8693 167.362 12.8907 167.917 12.976C168.472 13.0187 169.048 13.104 169.645 13.232C170.242 13.36 170.797 13.5307 171.309 13.744C171.821 13.9147 172.205 14.1067 172.461 14.32V15.536L159.853 25.2L158.445 24.048L166.573 12.912Z" fill="black"/>
</svg>

<svg xmlns="http://www.w3.org/2000/svg" width="180" height="80" fill="none">
    <path fill="#000" d="M15 71.3c1.5.3 3 .8 4.5 1.6v1.9h-10l-.6-.6 2.7-12.7 6-27.8-4-.6v-1.6l4.5-1.6c1.6-.4 3-.7 4.4-.7l1.3.8-2.6 11.3h.2a41 41 0 0 1 2.5-4.8c1-1.4 2-2.7 3-3.7 1-1.2 2.2-2 3.5-2.6 1.2-.6 2.5-1 4-1a6.5 6.5 0 0 1 4.9 2.3 11.4 11.4 0 0 1 2 6.6 30 30 0 0 1-5.5 17.2 19.3 19.3 0 0 1-5.9 5.5 14.2 14.2 0 0 1-9.1 1.9c-.5 0-1-.1-1.4-.3a6163.2 6163.2 0 0 0-2.3-1l-2 10Zm16.3-38.1c-1.2 0-2.4.5-3.5 1.5a19 19 0 0 0-3.1 3.4 36.4 36.4 0 0 0-4.4 8.3l-2.5 12.1c.6.6 1.2 1 1.8 1.2.7.2 1.8.3 3.2.3 1.7 0 3.3-.6 4.8-1.8 1.6-1.3 2.9-3 4-4.9a26.6 26.6 0 0 0 3.7-13.7c0-2-.4-3.6-1-4.7a3.2 3.2 0 0 0-3-1.7Zm14.8 16.9c0-2.3.4-4.6 1-7 .8-2.5 1.9-4.8 3.3-6.8 1.5-2 3.3-3.8 5.5-5 2.1-1.4 4.7-2 7.6-2 3.3 0 5.8 1 7.5 3 1.7 2 2.5 5 2.5 9 0 3-.4 5.6-1.2 8.2a23 23 0 0 1-3.4 6.8c-1.4 2-3.2 3.5-5.2 4.7a13 13 0 0 1-6.8 1.8c-3.3 0-6-1-7.9-3.2-2-2.1-2.9-5.3-2.9-9.5Zm16-18.1c-2 0-3.7.7-5 2-1.4 1.4-2.4 3-3.2 5a30.6 30.6 0 0 0-2 12.5c0 2.5.5 4.6 1.6 6.1A5.2 5.2 0 0 0 58 60c1.5 0 2.8-.5 4-1.6a14 14 0 0 0 3-4.5 36.1 36.1 0 0 0 2.6-13.4 12 12 0 0 0-1.3-6.1 4.5 4.5 0 0 0-4.1-2.4Zm30.3 22.4a4 4 0 0 0-1-2.6 9.7 9.7 0 0 0-2-2.2l-2.6-2-2.7-2.2a9.4 9.4 0 0 1-2.8-6.8c0-1.6.3-3 1-4.1a8.4 8.4 0 0 1 2.3-2.9 12 12 0 0 1 3.8-1.7 18 18 0 0 1 8.6-.3c1.4.1 2.7.6 4 1.3l-.3 1.7-.7 1.8-.9 1.6-1 1-4.8-5a9.5 9.5 0 0 0-4.5 1.1c-.6.4-1 1-1.4 1.6a5.2 5.2 0 0 0 .4 5.2c.5.7 1.2 1.5 2 2.2l2.7 2a15 15 0 0 1 4.8 5.2c.6 1 .8 2.3.8 3.8s-.3 3-1 4.1a9.4 9.4 0 0 1-3 3 12 12 0 0 1-4.1 2 19.3 19.3 0 0 1-10 0 11 11 0 0 1-3.5-1.4l.8-3.2c.3-1 .9-2 1.8-2.9L85 60c.9 0 1.8 0 2.6-.3a7 7 0 0 0 2.4-1c.7-.5 1.3-1 1.7-1.8.5-.6.7-1.5.8-2.5Zm13.9-22.9a26 26 0 0 1 5.5-2.1l1-4.9a43.6 43.6 0 0 1 4.5-2.3l1.4.8-1.5 7h8v1.6c-.1.6-.4 1-.7 1.6h-8l-4 18.6a29.5 29.5 0 0 0-.5 3.8c0 1.1.3 2 1 2.4.6.5 1.3.8 2.1.8 1 0 2.2-.2 3.4-.6a28 28 0 0 0 3.4-1.4l.7 1.2-1.7 1.6a17 17 0 0 1-5.7 2.7c-1 .3-2 .5-3 .5-1.8 0-3.3-.5-4.3-1.3-1.1-.9-1.6-2.2-1.6-4a17 17 0 0 1 .5-4.2l4.3-20.1h-4.9v-1.7Zm22.6 1.6v-1.6a31.1 31.1 0 0 1 4.6-1.5 31.2 31.2 0 0 1 4.5-.8l1.2.8-6 28.4h4.7v1.7a11.5 11.5 0 0 1-6.7 2.3c-1.2 0-2.1-.3-2.7-.8-.5-.6-.7-1.2-.7-2s0-1.7.2-2.5c0-.8.3-1.7.5-2.7l4.5-20.6-4.1-.7ZM134 19c0-1 .4-2 1-2.6.7-.6 1.6-1 2.8-1a4 4 0 0 1 2.8 1c.7.6 1 1.5 1 2.6 0 1-.3 2-1 2.5-.7.6-1.7 1-2.8 1a4 4 0 0 1-2.7-1c-.7-.6-1-1.4-1-2.5Zm33.2 37.4c-.4.8-1 1.6-1.7 2.4a14 14 0 0 1-2.5 2 13.3 13.3 0 0 1-7.3 2c-3.5 0-6.3-1-8.2-3a12 12 0 0 1-2.8-8.4 27.1 27.1 0 0 1 4.8-15.6 15.7 15.7 0 0 1 13-6.5c2 0 3.8.6 5.2 1.6 1.5 1 2.3 2.6 2.3 4.6 0 3-1.6 5.5-4.6 7.2-3 1.8-7.8 2.9-14.5 3.4a20 20 0 0 0-.5 4.1c0 2.6.7 4.6 2 6.3 1.3 1.6 3.2 2.4 5.7 2.4.8 0 1.6-.1 2.4-.4.8-.2 1.6-.6 2.2-1a36.3 36.3 0 0 0 3.5-2.4l1 1.3ZM160.5 32c-1.8 0-3.5.9-5.1 2.6-1.6 1.7-3 4.6-4 8.6 4 0 7.3-.8 9.6-2 2.3-1.4 3.5-3.2 3.5-5.5a4 4 0 0 0-.9-2.5c-.5-.8-1.5-1.2-3.1-1.2Zm6-19h1.4a13 13 0 0 1 3.4.7l1.2.6v1.2l-12.6 9.7-1.5-1.2 8.2-11Z"/>
</svg>
